icons/mv-line.svg

<svg viewBox="0 0 24 24" fill="currentColor" xmlns="http://www.w3.org/2000/svg"><path d="M2 3.9934C2 3.44476 2.45531 3 2.9918 3H21.0082C21.556 3 22 3.44495 22 3.9934V20.0066C22 20.5552 21.5447 21 21.0082 21H2.9918C2.44405 21 2 20.5551 2 20.0066V3.9934ZM4 5V19H20V5H4ZM12 12.1707V6H17V8H14V15C14 16.6569 12.6569 18 11 18C9.34315 18 8 16.6569 8 15C8 13.3431 9.34315 12 11 12C11.3506 12 11.6872 12.0602 12 12.1707Z"/></svg>

<svg xmlns="http://www.w3.org/2000/svg" viewBox="0 0 24 24">
    <g>
        <path fill="none" d="M0 0h24v24H0z"/>
        <path d="M2 3.993A1 1 0 0 1 2.992 3h18.016c.548 0 .992.445.992.993v16.014a1 1 0 0 1-.992.993H2.992A.993.993 0 0 1 2 20.007V3.993zM4 5v14h16V5H4zm8 7.17V6h5v2h-3v7a3 3 0 1 1-2-2.83z"/>
    </g>
</svg>
